build/Karasa-Jaga/scalable/devices/media-floppy-symbolic.svg

<svg height="16" width="16" xmlns="http://www.w3.org/2000/svg" xmlns:xlink="http://www.w3.org/1999/xlink"><filter id="a" color-interpolation-filters="sRGB"><feBlend in2="BackgroundImage" mode="darken"/></filter><g fill="#bebebe"><path d="m2 1c-.554 0-1 .446-1 1v12c0 .554.446 1 1 1h2.0625 7.9375 2c.1385 0 .255281-.04328.375-.09375.359156-.151406.625-.49075.625-.90625v-10.1961644l-3-2.8038356h-7.9375-.0625zm2.0625.96875h7.9375v.03125 5h-7.9375zm1.9375.03125v4h2v-4zm-4.1875 6.1328125h12.375v6.0996095h-12.375z" filter="url(#a)" transform="matrix(1.0372024 0 0 1.0372024 -.297619 -.297619)"/><path d="m4 9.625h8v1h-8z"/><path d="m4 11.625h8v1h-8z"/></g></svg>

<?xml version="1.0" encoding="UTF-8" standalone="no"?>
<!-- Created with Inkscape (http://www.inkscape.org/) -->

<svg
   xmlns:osb="http://www.openswatchbook.org/uri/2009/osb"
   xmlns:dc="http://purl.org/dc/elements/1.1/"
   xmlns:cc="http://creativecommons.org/ns#"
   xmlns:rdf="http://www.w3.org/1999/02/22-rdf-syntax-ns#"
   xmlns:svg="http://www.w3.org/2000/svg"
   xmlns="http://www.w3.org/2000/svg"
   xmlns:xlink="http://www.w3.org/1999/xlink"
   xmlns:sodipodi="http://sodipodi.sourceforge.net/DTD/sodipodi-0.dtd"
   xmlns:inkscape="http://www.inkscape.org/namespaces/inkscape"
   version="1.1"
   width="16"
   height="16"
   id="svg4112"
   inkscape:version="0.92.2 (unknown)"
   sodipodi:docname="media-floppy-symbolic.svg">
  <sodipodi:namedview
     pagecolor="#ffffff"
     bordercolor="#666666"
     borderopacity="1"
     objecttolerance="10"
     gridtolerance="10"
     guidetolerance="10"
     inkscape:pageopacity="0"
     inkscape:pageshadow="2"
     inkscape:window-width="1366"
     inkscape:window-height="697"
     id="namedview7"
     showgrid="false"
     inkscape:zoom="11.313708"
     inkscape:cx="3.1801216"
     inkscape:cy="0.55827439"
     inkscape:window-x="0"
     inkscape:window-y="0"
     inkscape:window-maximized="1"
     inkscape:current-layer="svg4112"
     showguides="false" />
  <defs
     id="defs4114">
    <linearGradient
       id="linearGradient3790">
      <stop
         style="stop-color:#93d0e9;stop-opacity:1;"
         offset="0"
         id="stop3792" />
      <stop
         style="stop-color:#3372b1;stop-opacity:1;"
         offset="1"
         id="stop3794" />
    </linearGradient>
    <linearGradient
       inkscape:collect="always"
       id="linearGradient3800">
      <stop
         style="stop-color:#000000;stop-opacity:0;"
         offset="0"
         id="stop3802" />
      <stop
         id="stop3808"
         offset="0.5"
         style="stop-color:#000000;stop-opacity:1;" />
      <stop
         style="stop-color:#000000;stop-opacity:0;"
         offset="1"
         id="stop3804" />
    </linearGradient>
    <linearGradient
       id="linearGradient3779">
      <stop
         style="stop-color:#828282;stop-opacity:1;"
         offset="0"
         id="stop3781" />
      <stop
         style="stop-color:#505050;stop-opacity:1;"
         offset="1"
         id="stop3783" />
    </linearGradient>
    <linearGradient
       id="linearGradient3771">
      <stop
         style="stop-color:#ffffff;stop-opacity:1;"
         offset="0"
         id="stop3773" />
      <stop
         style="stop-color:#e6e6e6;stop-opacity:1;"
         offset="1"
         id="stop3775" />
    </linearGradient>
    <linearGradient
       id="linearGradient4536">
      <stop
         style="stop-color:#ffffff;stop-opacity:1;"
         offset="0"
         id="stop4538" />
      <stop
         id="stop4546"
         offset="0.08246523"
         style="stop-color:#ffffff;stop-opacity:0.15686275;" />
      <stop
         id="stop4544"
         offset="0.936414"
         style="stop-color:#ffffff;stop-opacity:0.23529412;" />
      <stop
         style="stop-color:#ffffff;stop-opacity:0.39215687;"
         offset="1"
         id="stop4540" />
    </linearGradient>
    <radialGradient
       inkscape:collect="always"
       xlink:href="#linearGradient3688-166-749"
       id="radialGradient3132"
       gradientUnits="userSpaceOnUse"
       gradientTransform="matrix(2.003784,0,0,1.4,27.98813,-17.4)"
       cx="4.9929786"
       cy="43.5"
       fx="4.9929786"
       fy="43.5"
       r="2.5" />
    <linearGradient
       id="linearGradient3688-166-749">
      <stop
         id="stop2883"
         style="stop-color:#181818;stop-opacity:1"
         offset="0" />
      <stop
         id="stop2885"
         style="stop-color:#181818;stop-opacity:0"
         offset="1" />
    </linearGradient>
    <radialGradient
       inkscape:collect="always"
       xlink:href="#linearGradient3688-464-309"
       id="radialGradient3134"
       gradientUnits="userSpaceOnUse"
       gradientTransform="matrix(2.003784,0,0,1.4,-20.01187,-104.4)"
       cx="4.9929786"
       cy="43.5"
       fx="4.9929786"
       fy="43.5"
       r="2.5" />
    <linearGradient
       id="linearGradient3688-464-309">
      <stop
         id="stop2889"
         style="stop-color:#181818;stop-opacity:1"
         offset="0" />
      <stop
         id="stop2891"
         style="stop-color:#181818;stop-opacity:0"
         offset="1" />
    </linearGradient>
    <linearGradient
       inkscape:collect="always"
       xlink:href="#linearGradient3702-501-757"
       id="linearGradient3136"
       gradientUnits="userSpaceOnUse"
       x1="25.058096"
       y1="47.027729"
       x2="25.058096"
       y2="39.999443" />
    <linearGradient
       id="linearGradient3702-501-757">
      <stop
         id="stop2895"
         style="stop-color:#181818;stop-opacity:0"
         offset="0" />
      <stop
         id="stop2897"
         style="stop-color:#181818;stop-opacity:1"
         offset="0.5" />
      <stop
         id="stop2899"
         style="stop-color:#181818;stop-opacity:0"
         offset="1" />
    </linearGradient>
    <linearGradient
       inkscape:collect="always"
       xlink:href="#linearGradient4536"
       id="linearGradient4542"
       x1="14.801802"
       y1="1010.4072"
       x2="14.801802"
       y2="1024.1722"
       gradientUnits="userSpaceOnUse"
       gradientTransform="translate(-4,27.000017)" />
    <radialGradient
       inkscape:collect="always"
       xlink:href="#linearGradient3771"
       id="radialGradient3777"
       cx="8.0720873"
       cy="1039.4613"
       fx="8.0720873"
       fy="1039.4613"
       r="8"
       gradientUnits="userSpaceOnUse"
       gradientTransform="matrix(1.4806489e-6,1.9101011,-1.3873874,1.0754581e-6,1450.2076,1024.0417)" />
    <linearGradient
       inkscape:collect="always"
       xlink:href="#linearGradient3779"
       id="linearGradient3785"
       x1="3.4594595"
       y1="1036.4342"
       x2="3.4594595"
       y2="1052.2942"
       gradientUnits="userSpaceOnUse" />
    <linearGradient
       inkscape:collect="always"
       xlink:href="#linearGradient3800"
       id="linearGradient3806"
       x1="1.1875"
       y1="7.984375"
       x2="14.8125"
       y2="7.984375"
       gradientUnits="userSpaceOnUse" />
    <radialGradient
       inkscape:collect="always"
       xlink:href="#linearGradient3790"
       id="radialGradient3796"
       cx="11.072059"
       cy="1045.0559"
       fx="11.072059"
       fy="1045.0559"
       r="5"
       gradientUnits="userSpaceOnUse"
       gradientTransform="matrix(1.3020488e-5,1.7443014,-1.3603604,1.0154528e-5,1426.7246,1025.7323)" />
    <linearGradient
       inkscape:collect="always"
       xlink:href="#linearGradient3779"
       id="linearGradient3812"
       x1="6.2342343"
       y1="1036.4342"
       x2="6.2342343"
       y2="1052.3365"
       gradientUnits="userSpaceOnUse" />
    <linearGradient
       inkscape:collect="always"
       xlink:href="#linearGradient3779"
       id="linearGradient3804"
       gradientUnits="userSpaceOnUse"
       x1="6.2342343"
       y1="1036.4342"
       x2="6.2342343"
       y2="1052.3365"
       gradientTransform="translate(0,-1036.3622)" />
    <linearGradient
       id="linearGradient3785-6">
      <stop
         style="stop-color:#384880;stop-opacity:1;"
         offset="0"
         id="stop3787" />
      <stop
         style="stop-color:#000000;stop-opacity:1;"
         offset="1"
         id="stop3789" />
    </linearGradient>
    <linearGradient
       y2="520.1709"
       y1="408.39655"
       x2="365.97757"
       x1="365.51193"
       id="linearGradient3189"
       xlink:href="#linearGradient3785-6"
       gradientUnits="userSpaceOnUse"
       gradientTransform="matrix(0.08112299,0,0,0.07855526,540.8143,254.8467)"
       inkscape:collect="always" />
    <filter
       id="filter7554"
       color-interpolation-filters="sRGB"
       inkscape:collect="always">
      <feBlend
         mode="darken"
         in2="BackgroundImage"
         id="feBlend7556"
         inkscape:collect="always" />
    </filter>
    <linearGradient
       osb:paint="solid"
       id="linearGradient5606">
      <stop
         style="stop-color:#000000;stop-opacity:1;"
         offset="0"
         id="stop5608" />
    </linearGradient>
  </defs>
  <metadata
     id="metadata4117">
    <rdf:RDF>
      <cc:Work
         rdf:about="">
        <dc:format>image/svg+xml</dc:format>
        <dc:type
           rdf:resource="http://purl.org/dc/dcmitype/StillImage" />
        <dc:title></dc:title>
      </cc:Work>
    </rdf:RDF>
  </metadata>
  <path
     style="fill:#bebebe;fill-opacity:1;stroke:none;filter:url(#filter7554)"
     d="M 2,1 C 1.446,1 1,1.446 1,2 v 12 c 0,0.554 0.446,1 1,1 H 4.0625 12 14 c 0.1385,0 0.255281,-0.04328 0.375,-0.09375 C 14.734156,14.754844 15,14.4155 15,14 V 3.8038356 L 12,1 H 4.0625 4 Z M 4.0625,1.96875 H 12 V 2 7 H 4.0625 Z M 6,2 V 6 H 8 V 2 Z M 1.8125,8.1328125 h 12.375 V 14.232422 H 1.8125 Z"
     id="path5322"
     inkscape:connector-curvature="0"
     transform="matrix(1.0372024,0,0,1.0372024,-0.29761905,-0.29761905)"
     sodipodi:nodetypes="ssssccscsccccscccccccccccccccc" />
  <g
     id="layer9-3"
     inkscape:label="status"
     style="fill:#bebebe;fill-opacity:1;display:inline"
     transform="matrix(-1,0,0,-1,437.0002,-87.00002)" />
  <g
     id="layer1"
     inkscape:label="places"
     style="fill:#bebebe;fill-opacity:1;display:inline"
     transform="matrix(-1,0,0,-1,196,529.99998)" />
  <g
     id="layer14-8"
     inkscape:label="mimetypes"
     style="fill:#bebebe;fill-opacity:1;display:inline"
     transform="matrix(-1,0,0,-1,437.0002,-87.00002)" />
  <g
     id="layer15-3"
     inkscape:label="emblems"
     style="fill:#bebebe;fill-opacity:1;display:inline"
     transform="matrix(-1,0,0,-1,437.0002,-87.00002)" />
  <g
     id="g71291-3"
     inkscape:label="emotes"
     style="fill:#bebebe;fill-opacity:1;display:inline"
     transform="matrix(-1,0,0,-1,437.0002,-87.00002)" />
  <g
     id="layer2"
     inkscape:label="categories"
     style="fill:#bebebe;fill-opacity:1;display:inline"
     transform="matrix(-1,0,0,-1,196,379.99998)" />
  <g
     id="g6058"
     inkscape:label="apps"
     style="fill:#bebebe;fill-opacity:1;display:inline"
     transform="matrix(-1,0,0,-1,196,379.99998)" />
  <g
     id="layer12"
     inkscape:label="actions"
     style="fill:#bebebe;fill-opacity:1;display:inline"
     transform="matrix(-1,0,0,-1,437.0002,-87.00002)" />
  <rect
     id="rect2"
     height="1"
     width="8"
     style="fill:#bebebe;fill-opacity:1"
     y="9.625"
     x="4" />
  <rect
     id="rect4"
     height="1"
     width="8"
     style="fill:#bebebe;fill-opacity:1"
     y="11.625"
     x="4" />
</svg>
